X: 25
T: Swallow's Tail, The
Z: UPipes & harp
S: https://thesession.org/tunes/105#setting49915
R: reel
M: 4/4
L: 1/8
K: Ador
|: ~e3 g edBA| (3Bcd ef g2 ga|gedc B ~G3| BG (3Bcd g2 fg|
~e3 ge ~A3| Bdef ~g3 a|b ~g3 agba| gedB ~A2 (3Bcd:|
|:e ~a3 aged | (3Bcd ef ~g3 a |gedc B ~G3 | BG (3Bcd g2 fg|
eaab aged |(3Bcd ef ~g3 a| b ~g3 agba|gedB ~A2 (3Bcd:|

